packages/core/src/svgs/mnw.svg

<svg width="24" height="24" viewBox="0 0 24 24" fill="none" xmlns="http://www.w3.org/2000/svg">
<g clip-path="url(#clip0_31_14099)">
<path d="M0 0H24V24H0V0Z" fill="#F0F3FA"/>
<path d="M7.19133 7.31589L4.73561 16.4145C4.57704 17.0059 5.34419 17.4087 5.75561 16.9459L9.03847 13.2602L11.0528 15.5402C11.1725 15.6739 11.3192 15.781 11.4831 15.8542C11.6471 15.9275 11.8246 15.9653 12.0042 15.9653C12.1837 15.9653 12.3613 15.9275 12.5252 15.8542C12.6892 15.781 12.8358 15.6739 12.9556 15.5402L14.9699 13.2645L18.2442 16.9287C18.6599 17.3916 19.4228 16.9887 19.2642 16.3973L16.8128 7.32875C16.7529 7.11724 16.6372 6.92574 16.4778 6.7743C16.3185 6.62286 16.1214 6.51706 15.9071 6.46798C15.6928 6.4189 15.4693 6.42835 15.2599 6.49534C15.0505 6.56233 14.863 6.6844 14.717 6.84875L11.9999 9.9216L9.29133 6.84446C9.14594 6.68003 8.95906 6.55766 8.75022 6.49012C8.54137 6.42259 8.31823 6.41238 8.10409 6.46055C7.88995 6.50872 7.69267 6.61351 7.53286 6.76397C7.37306 6.91443 7.25659 7.10504 7.19561 7.31589H7.19133Z" fill="url(#paint0_linear_31_14099)"/>
<path opacity="0.9" d="M7.1914 7.31589L5.57568 13.303C5.67071 13.0753 5.81102 12.8693 5.98808 12.6975C6.16514 12.5256 6.37527 12.3915 6.60572 12.3034C6.83617 12.2152 7.08213 12.1748 7.32868 12.1845C7.57522 12.1943 7.81722 12.2541 8.03997 12.3602C8.46854 12.5616 8.80283 12.943 9.03854 13.2602L11.0528 15.5316C11.1726 15.6654 11.3193 15.7724 11.4832 15.8456C11.6471 15.9189 11.8247 15.9568 12.0043 15.9568C12.1838 15.9568 12.3614 15.9189 12.5253 15.8456C12.6892 15.7724 12.8359 15.6654 12.9557 15.5316L14.97 13.2602L17.6057 10.2645C17.2305 10.6412 16.7794 10.9337 16.2824 11.1225C15.7854 11.3114 15.2539 11.3923 14.7233 11.3599C14.1926 11.3275 13.6749 11.1824 13.2046 10.9344C12.7343 10.6865 12.3222 10.3412 11.9957 9.9216L9.28711 6.84446C9.14172 6.68003 8.95484 6.55766 8.746 6.49012C8.53716 6.42259 8.31401 6.41238 8.09987 6.46055C7.88573 6.50872 7.68845 6.61351 7.52865 6.76397C7.36884 6.91443 7.25237 7.10504 7.1914 7.31589Z" fill="url(#paint1_linear_31_14099)"/>
<path d="M14.97 13.2599L18.2443 16.9242C18.66 17.387 19.4228 16.9842 19.2643 16.3927L17.6057 10.2642L14.97 13.2599Z" fill="url(#paint2_linear_31_14099)"/>
<path d="M5.57561 13.2986L4.73561 16.4101C4.57704 17.0015 5.34419 17.4044 5.75561 16.9415L9.03847 13.2558C8.77509 12.8486 8.4002 12.5258 7.95847 12.3258C7.73787 12.2327 7.5011 12.1841 7.26168 12.1827C7.02227 12.1812 6.78492 12.227 6.56321 12.3173C6.34149 12.4077 6.13977 12.5409 5.96957 12.7092C5.79938 12.8776 5.66405 13.0779 5.57133 13.2986H5.57561Z" fill="url(#paint3_linear_31_14099)"/>
</g>
<defs>
<linearGradient id="paint0_linear_31_14099" x1="15.4928" y1="7.2816" x2="14.987" y2="10.8516" gradientUnits="userSpaceOnUse">
<stop stop-color="#5083A9"/>
<stop offset="1" stop-color="#12132C"/>
</linearGradient>
<linearGradient id="paint1_linear_31_14099" x1="16.4357" y1="11.9016" x2="5.57568" y2="12.1416" gradientUnits="userSpaceOnUse">
<stop stop-color="#1C2849"/>
<stop offset="1" stop-color="#5893BA"/>
</linearGradient>
<linearGradient id="paint2_linear_31_14099" x1="16.4614" y1="11.7899" x2="18.63" y2="16.7313" gradientUnits="userSpaceOnUse">
<stop stop-color="#13182F"/>
<stop offset="1" stop-color="#5284AC"/>
</linearGradient>
<linearGradient id="paint3_linear_31_14099" x1="8.05704" y1="12.4972" x2="5.44276" y2="16.8344" gradientUnits="userSpaceOnUse">
<stop stop-color="#1C2849"/>
<stop offset="1" stop-color="#436C92"/>
</linearGradient>
<clipPath id="clip0_31_14099">
<rect width="24" height="24" fill="white"/>
</clipPath>
</defs>
</svg>

<svg xmlns="http://www.w3.org/2000/svg" width="24" height="24" fill="none" viewBox="0 0 24 24"><g clip-path="url(#a)"><path fill="#F0F3FA" d="M0 0h24v24H0z"/><path fill="url(#b)" d="m7.191 7.316-2.455 9.099c-.159.59.608.994 1.02.53l3.282-3.685 2.015 2.28a1.276 1.276 0 0 0 1.903 0l2.014-2.275 3.274 3.664c.416.463 1.179.06 1.02-.532L16.813 7.33a1.225 1.225 0 0 0-2.096-.48L12 9.922 9.29 6.844a1.226 1.226 0 0 0-2.095.472z"/><path fill="url(#c)" d="m7.191 7.316-1.615 5.987a1.82 1.82 0 0 1 2.464-.943c.429.202.763.583.999.9l2.014 2.272a1.276 1.276 0 0 0 1.903 0l2.014-2.272 2.636-2.995a3.745 3.745 0 0 1-5.61-.343L9.287 6.844a1.226 1.226 0 0 0-2.096.472" opacity=".9"/><path fill="url(#d)" d="m14.97 13.26 3.274 3.664c.416.463 1.179.06 1.02-.531l-1.658-6.129z"/><path fill="url(#e)" d="m5.576 13.299-.84 3.111c-.159.591.608.994 1.02.532l3.282-3.686a2.53 2.53 0 0 0-1.08-.93 1.82 1.82 0 0 0-2.387.973z"/></g><defs><linearGradient id="b" x1="15.493" x2="14.987" y1="7.282" y2="10.852" gradientUnits="userSpaceOnUse"><stop stop-color="#5083A9"/><stop offset="1" stop-color="#12132C"/></linearGradient><linearGradient id="c" x1="16.436" x2="5.576" y1="11.902" y2="12.142" gradientUnits="userSpaceOnUse"><stop stop-color="#1C2849"/><stop offset="1" stop-color="#5893BA"/></linearGradient><linearGradient id="d" x1="16.461" x2="18.63" y1="11.79" y2="16.731" gradientUnits="userSpaceOnUse"><stop stop-color="#13182F"/><stop offset="1" stop-color="#5284AC"/></linearGradient><linearGradient id="e" x1="8.057" x2="5.443" y1="12.497" y2="16.834" gradientUnits="userSpaceOnUse"><stop stop-color="#1C2849"/><stop offset="1" stop-color="#436C92"/></linearGradient><clipPath id="a"><path fill="#fff" d="M0 0h24v24H0z"/></clipPath></defs></svg>
